img/home/icons/usp-2.svg

<?xml version="1.0" encoding="UTF-8"?>
<svg width="60px" height="72px" viewBox="0 0 60 72" version="1.1" xmlns="http://www.w3.org/2000/svg" xmlns:xlink="http://www.w3.org/1999/xlink">
    <!-- Generator: Sketch 51.3 (57544) - http://www.bohemiancoding.com/sketch -->
    <title>usp-2</title>
    <desc>Created with Sketch.</desc>
    <defs>
        <polygon id="path-1" points="0 0.549 59.451 0.549 59.451 60 0 60"></polygon>
    </defs>
    <g id="Home-&amp;-Quote" stroke="none" stroke-width="1" fill="none" fill-rule="evenodd">
        <g id="TT-Home-01" transform="translate(-542.000000, -646.000000)">
            <g id="usp-2" transform="translate(542.000000, 646.000000)">
                <g id="Group-3" transform="translate(0.000000, 11.966600)">
                    <mask id="mask-2" fill="white">
                        <use xlink:href="#path-1"></use>
                    </mask>
                    <g id="Clip-2"></g>
                    <path d="M29.7254,3.678 C15.0594,3.678 3.1284,15.609 3.1284,30.275 C3.1284,44.941 15.0594,56.871 29.7254,56.871 C44.3904,56.871 56.3224,44.941 56.3224,30.275 C56.3224,15.609 44.3904,3.678 29.7254,3.678 M29.7254,60 C13.3344,60 -0.0006,46.665 -0.0006,30.275 C-0.0006,13.884 13.3344,0.549 29.7254,0.549 C46.1164,0.549 59.4514,13.884 59.4514,30.275 C59.4514,46.665 46.1164,60 29.7254,60" id="Fill-1" fill="#FFFFFF" mask="url(#mask-2)"></path>
                </g>
                <path d="M29.7254,21.9034 C18.5114,21.9034 9.3864,31.0274 9.3864,42.2414 C9.3864,53.4554 18.5114,62.5804 29.7254,62.5804 C40.9394,62.5804 50.0634,53.4554 50.0634,42.2414 C50.0634,31.0274 40.9394,21.9034 29.7254,21.9034 M29.7254,65.7094 C16.7854,65.7094 6.2574,55.1814 6.2574,42.2414 C6.2574,29.3004 16.7854,18.7734 29.7254,18.7734 C42.6654,18.7734 53.1924,29.3004 53.1924,42.2414 C53.1924,55.1814 42.6654,65.7094 29.7254,65.7094" id="Fill-4" fill="#FFFFFF"></path>
                <path d="M29.7254,3.1289 C27.1374,3.1289 25.0324,5.2339 25.0324,7.8219 C25.0324,10.4099 27.1374,12.5159 29.7254,12.5159 C32.3134,12.5159 34.4184,10.4099 34.4184,7.8219 C34.4184,5.2339 32.3134,3.1289 29.7254,3.1289 M29.7254,15.6449 C25.4124,15.6449 21.9034,12.1359 21.9034,7.8219 C21.9034,3.5099 25.4124,-0.0001 29.7254,-0.0001 C34.0374,-0.0001 37.5474,3.5099 37.5474,7.8219 C37.5474,12.1359 34.0374,15.6449 29.7254,15.6449" id="Fill-6" fill="#FFFFFF"></path>
                <path d="M33.0389,45.5616 L33.0549,45.5616 L33.0389,45.5616 Z M27.5489,40.0706 L21.7549,50.2076 L31.8919,44.4146 L37.6849,34.2766 L27.5489,40.0706 Z M17.5519,55.9746 C17.1459,55.9746 16.7469,55.8176 16.4449,55.5166 C15.9459,55.0186 15.8439,54.2476 16.1929,53.6336 L25.0429,38.1466 C25.1819,37.9036 25.3819,37.7036 25.6249,37.5646 L41.1119,28.7156 C41.7239,28.3626 42.4949,28.4696 42.9949,28.9676 C43.4939,29.4656 43.5969,30.2376 43.2469,30.8496 L34.3969,46.3366 C34.2589,46.5806 34.0589,46.7806 33.8149,46.9196 L18.3279,55.7686 C18.0849,55.9076 17.8169,55.9746 17.5519,55.9746 Z" id="Fill-8" fill="#FFFFFF"></path>
                <polygon id="Fill-10" fill="#FFFFFF" points="31.9334 46.667 25.2944 40.029 27.5064 37.816 34.1454 44.455"></polygon>
                <path d="M29.7254,26.5967 C28.8604,26.5967 28.1614,25.8967 28.1614,25.0327 L28.1614,20.3377 C28.1614,19.4737 28.8604,18.7737 29.7254,18.7737 C30.5894,18.7737 31.2894,19.4737 31.2894,20.3377 L31.2894,25.0327 C31.2894,25.8967 30.5894,26.5967 29.7254,26.5967" id="Fill-12" fill="#FFFFFF"></path>
                <path d="M29.7254,65.709 C28.8604,65.709 28.1614,65.009 28.1614,64.145 L28.1614,59.45 C28.1614,58.586 28.8604,57.886 29.7254,57.886 C30.5894,57.886 31.2894,58.586 31.2894,59.45 L31.2894,64.145 C31.2894,65.009 30.5894,65.709 29.7254,65.709" id="Fill-14" fill="#FFFFFF"></path>
                <path d="M51.6277,43.8057 L46.9347,43.8057 C46.0697,43.8057 45.3697,43.1067 45.3697,42.2417 C45.3697,41.3767 46.0697,40.6767 46.9347,40.6767 L51.6277,40.6767 C52.4927,40.6767 53.1917,41.3767 53.1917,42.2417 C53.1917,43.1067 52.4927,43.8057 51.6277,43.8057" id="Fill-16" fill="#FFFFFF"></path>
                <path d="M12.5154,43.8057 L7.8224,43.8057 C6.9574,43.8057 6.2574,43.1067 6.2574,42.2417 C6.2574,41.3767 6.9574,40.6767 7.8224,40.6767 L12.5154,40.6767 C13.3804,40.6767 14.0804,41.3767 14.0804,42.2417 C14.0804,43.1067 13.3804,43.8057 12.5154,43.8057" id="Fill-18" fill="#FFFFFF"></path>
            </g>
        </g>
    </g>
</svg>

<svg height="72" viewBox="0 0 60 72" width="60" xmlns="http://www.w3.org/2000/svg" xmlns:xlink="http://www.w3.org/1999/xlink"><mask id="a" fill="#fff"><path d="m0 .549h59.451v59.451h-59.451z" fill="#fff" fill-rule="evenodd"/></mask><g fill="#fff" fill-rule="evenodd"><path d="m29.7254 3.678c-14.666 0-26.597 11.931-26.597 26.597s11.931 26.596 26.597 26.596c14.665 0 26.597-11.93 26.597-26.596s-11.932-26.597-26.597-26.597m0 56.322c-16.391 0-29.726-13.335-29.726-29.725 0-16.391 13.335-29.726 29.726-29.726s29.726 13.335 29.726 29.726c0 16.39-13.335 29.725-29.726 29.725" mask="url(#a)" transform="translate(0 11.9666)"/><path d="m29.7254 21.9034c-11.214 0-20.339 9.124-20.339 20.338s9.125 20.339 20.339 20.339 20.338-9.125 20.338-20.339-9.124-20.338-20.338-20.338m0 43.806c-12.94 0-23.468-10.528-23.468-23.468 0-12.941 10.528-23.468 23.468-23.468s23.467 10.527 23.467 23.468c0 12.94-10.527 23.468-23.467 23.468"/><path d="m29.7254 3.1289c-2.588 0-4.693 2.105-4.693 4.693s2.105 4.694 4.693 4.694 4.693-2.106 4.693-4.694-2.105-4.693-4.693-4.693m0 12.516c-4.313 0-7.822-3.509-7.822-7.823 0-4.312 3.509-7.822 7.822-7.822 4.312 0 7.822 3.51 7.822 7.822 0 4.314-3.51 7.823-7.822 7.823"/><path d="m33.0389 45.5616h.016zm-5.49-5.491-5.794 10.137 10.137-5.793 5.793-10.138zm-9.997 15.904c-.406 0-.805-.157-1.107-.458-.499-.498-.601-1.269-.252-1.883l8.85-15.487c.139-.243.339-.443.582-.582l15.487-8.849c.612-.353 1.383-.246 1.883.252.499.498.602 1.27.252 1.882l-8.85 15.487c-.138.244-.338.444-.582.583l-15.487 8.849c-.243.139-.511.206-.776.206z"/><path d="m31.9334 46.667-6.639-6.638 2.212-2.213 6.639 6.639z"/><path d="m29.7254 26.5967c-.865 0-1.564-.7-1.564-1.564v-4.695c0-.864.699-1.564 1.564-1.564.864 0 1.564.7 1.564 1.564v4.695c0 .864-.7 1.564-1.564 1.564"/><path d="m29.7254 65.709c-.865 0-1.564-.7-1.564-1.564v-4.695c0-.864.699-1.564 1.564-1.564.864 0 1.564.7 1.564 1.564v4.695c0 .864-.7 1.564-1.564 1.564"/><path d="m51.6277 43.8057h-4.693c-.865 0-1.565-.699-1.565-1.564s.7-1.565 1.565-1.565h4.693c.865 0 1.564.7 1.564 1.565s-.699 1.564-1.564 1.564"/><path d="m12.5154 43.8057h-4.693c-.865 0-1.565-.699-1.565-1.564s.7-1.565 1.565-1.565h4.693c.865 0 1.565.7 1.565 1.565s-.7 1.564-1.565 1.564"/></g></svg>
